images/158617.svg

<?xml version="1.0" encoding="UTF-8"?>
<svg xmlns="http://www.w3.org/2000/svg" xmlns:xlink="http://www.w3.org/1999/xlink" width="300pt" height="300pt" viewBox="0 0 300 300" version="1.1">
<defs>
<g>
<symbol overflow="visible" id="glyph0-0">
<path style="stroke:none;" d="M 0.59375 2.125 L 0.59375 -8.46875 L 6.59375 -8.46875 L 6.59375 2.125 Z M 1.265625 1.453125 L 5.9375 1.453125 L 5.9375 -7.78125 L 1.265625 -7.78125 Z M 1.265625 1.453125 "/>
</symbol>
<symbol overflow="visible" id="glyph0-1">
<path style="stroke:none;" d="M 1.171875 -8.75 L 2.765625 -8.75 L 6.65625 -1.4375 L 6.65625 -8.75 L 7.796875 -8.75 L 7.796875 0 L 6.203125 0 L 2.328125 -7.3125 L 2.328125 0 L 1.171875 0 Z M 1.171875 -8.75 "/>
</symbol>
<symbol overflow="visible" id="glyph0-2">
<path style="stroke:none;" d="M 1.171875 -8.75 L 2.359375 -8.75 L 2.359375 -5.15625 L 6.65625 -5.15625 L 6.65625 -8.75 L 7.84375 -8.75 L 7.84375 0 L 6.65625 0 L 6.65625 -4.171875 L 2.359375 -4.171875 L 2.359375 0 L 1.171875 0 Z M 1.171875 -8.75 "/>
</symbol>
<symbol overflow="visible" id="glyph0-3">
<path style="stroke:none;" d="M 4.734375 -7.953125 C 3.867188 -7.953125 3.179688 -7.628906 2.671875 -6.984375 C 2.171875 -6.347656 1.921875 -5.472656 1.921875 -4.359375 C 1.921875 -3.265625 2.171875 -2.394531 2.671875 -1.75 C 3.179688 -1.113281 3.867188 -0.796875 4.734375 -0.796875 C 5.585938 -0.796875 6.265625 -1.113281 6.765625 -1.75 C 7.273438 -2.394531 7.53125 -3.265625 7.53125 -4.359375 C 7.53125 -5.472656 7.273438 -6.347656 6.765625 -6.984375 C 6.265625 -7.628906 5.585938 -7.953125 4.734375 -7.953125 Z M 4.734375 -8.90625 C 5.953125 -8.90625 6.925781 -8.492188 7.65625 -7.671875 C 8.394531 -6.847656 8.765625 -5.742188 8.765625 -4.359375 C 8.765625 -2.984375 8.394531 -1.882812 7.65625 -1.0625 C 6.925781 -0.238281 5.953125 0.171875 4.734375 0.171875 C 3.503906 0.171875 2.519531 -0.238281 1.78125 -1.0625 C 1.039062 -1.882812 0.671875 -2.984375 0.671875 -4.359375 C 0.671875 -5.742188 1.039062 -6.847656 1.78125 -7.671875 C 2.519531 -8.492188 3.503906 -8.90625 4.734375 -8.90625 Z M 4.734375 -8.90625 "/>
</symbol>
</g>
</defs>
<g id="surface37993">
<rect x="0" y="0" width="300" height="300" style="fill:rgb(100%,100%,100%);fill-opacity:1;stroke:none;"/>
<path style="fill:none;stroke-width:1.2;stroke-linecap:butt;stroke-linejoin:miter;stroke:rgb(0%,0%,0%);stroke-opacity:1;stroke-miterlimit:10;" d="M 202.046875 72.015625 L 179.988281 91.90625 "/>
<path style="fill:none;stroke-width:1.2;stroke-linecap:butt;stroke-linejoin:miter;stroke:rgb(0%,0%,0%);stroke-opacity:1;stroke-miterlimit:10;" d="M 179.988281 91.90625 L 186.183594 120.953125 "/>
<path style="fill:none;stroke-width:1.2;stroke-linecap:butt;stroke-linejoin:miter;stroke:rgb(0%,0%,0%);stroke-opacity:1;stroke-miterlimit:10;" d="M 173.773438 96.269531 L 178.730469 119.503906 "/>
<path style="fill:none;stroke-width:1.2;stroke-linecap:butt;stroke-linejoin:miter;stroke:rgb(0%,0%,100%);stroke-opacity:1;stroke-miterlimit:10;" d="M 151.734375 82.746094 L 165.863281 87.324219 "/>
<path style="fill:none;stroke-width:1.2;stroke-linecap:butt;stroke-linejoin:miter;stroke:rgb(0%,0%,0%);stroke-opacity:1;stroke-miterlimit:10;" d="M 165.863281 87.324219 L 179.988281 91.90625 "/>
<path style="fill:none;stroke-width:1.2;stroke-linecap:butt;stroke-linejoin:miter;stroke:rgb(0%,0%,0%);stroke-opacity:1;stroke-miterlimit:10;" d="M 186.183594 120.953125 L 164.125 140.84375 "/>
<path style="fill:none;stroke-width:1.2;stroke-linecap:butt;stroke-linejoin:miter;stroke:rgb(0%,0%,0%);stroke-opacity:1;stroke-miterlimit:10;" d="M 186.183594 120.953125 L 214.4375 130.109375 "/>
<path style="fill:none;stroke-width:1.2;stroke-linecap:butt;stroke-linejoin:miter;stroke:rgb(0%,0%,0%);stroke-opacity:1;stroke-miterlimit:10;" d="M 164.125 140.84375 L 135.875 131.683594 "/>
<path style="fill:none;stroke-width:1;stroke-linecap:butt;stroke-linejoin:miter;stroke:rgb(0%,0%,0%);stroke-opacity:1;stroke-miterlimit:10;" d="M 164.125 140.84375 L 164.125 140.84375 M 164.234375 143.839844 L 165.253906 143.621094 M 164.339844 146.839844 L 166.378906 146.402344 M 164.445312 149.835938 L 167.503906 149.183594 M 164.550781 152.835938 L 168.632812 151.964844 M 164.660156 155.832031 L 169.757812 154.746094 M 164.765625 158.832031 L 170.882812 157.527344 M 164.871094 161.828125 L 172.011719 160.304688 M 164.976562 164.828125 L 173.136719 163.085938 M 165.085938 167.824219 L 174.261719 165.867188 M 165.191406 170.824219 L 175.386719 168.648438 M 165.195312 170.984375 L 175.449219 168.796875 "/>
<path style="fill:none;stroke-width:1.2;stroke-linecap:butt;stroke-linejoin:miter;stroke:rgb(0%,0%,0%);stroke-opacity:1;stroke-miterlimit:10;" d="M 135.875 131.683594 L 129.675781 102.636719 "/>
<path style="fill:none;stroke-width:1.2;stroke-linecap:butt;stroke-linejoin:miter;stroke:rgb(0%,0%,0%);stroke-opacity:1;stroke-miterlimit:10;" d="M 142.089844 127.320312 L 137.132812 104.082031 "/>
<path style="fill:none;stroke-width:1.2;stroke-linecap:butt;stroke-linejoin:miter;stroke:rgb(0%,0%,0%);stroke-opacity:1;stroke-miterlimit:10;" d="M 135.875 131.683594 L 113.816406 151.574219 "/>
<path style="fill:none;stroke-width:1.2;stroke-linecap:butt;stroke-linejoin:miter;stroke:rgb(0%,0%,0%);stroke-opacity:1;stroke-miterlimit:10;" d="M 129.675781 102.636719 L 140.707031 92.691406 "/>
<path style="fill:none;stroke-width:1.2;stroke-linecap:butt;stroke-linejoin:miter;stroke:rgb(0%,0%,100%);stroke-opacity:1;stroke-miterlimit:10;" d="M 140.707031 92.691406 L 151.734375 82.746094 "/>
<path style="fill:none;stroke-width:1.2;stroke-linecap:butt;stroke-linejoin:miter;stroke:rgb(0%,0%,0%);stroke-opacity:1;stroke-miterlimit:10;" d="M 129.675781 102.636719 L 101.425781 93.476562 "/>
<path style=" stroke:none;fill-rule:nonzero;fill:rgb(100%,100%,100%);fill-opacity:1;" d="M 142.734375 75.746094 L 160.734375 75.746094 L 160.734375 89.746094 L 142.734375 89.746094 Z M 142.734375 75.746094 "/>
<g style="fill:rgb(0%,0%,100%);fill-opacity:1;">
  <use xlink:href="#glyph0-1" x="142.734375" y="86.884766"/>
  <use xlink:href="#glyph0-2" x="151.710938" y="86.884766"/>
</g>
<path style="fill:none;stroke-width:1.2;stroke-linecap:butt;stroke-linejoin:miter;stroke:rgb(0%,0%,0%);stroke-opacity:1;stroke-miterlimit:10;" d="M 110.398438 152.300781 L 113.496094 166.824219 "/>
<path style="fill:none;stroke-width:1.2;stroke-linecap:butt;stroke-linejoin:miter;stroke:rgb(100%,0%,0%);stroke-opacity:1;stroke-miterlimit:10;" d="M 113.496094 166.824219 L 116.59375 181.347656 "/>
<path style="fill:none;stroke-width:1.2;stroke-linecap:butt;stroke-linejoin:miter;stroke:rgb(0%,0%,0%);stroke-opacity:1;stroke-miterlimit:10;" d="M 117.234375 150.84375 L 120.332031 165.367188 "/>
<path style="fill:none;stroke-width:1.2;stroke-linecap:butt;stroke-linejoin:miter;stroke:rgb(100%,0%,0%);stroke-opacity:1;stroke-miterlimit:10;" d="M 120.332031 165.367188 L 123.429688 179.890625 "/>
<path style="fill:none;stroke-width:1.2;stroke-linecap:butt;stroke-linejoin:miter;stroke:rgb(0%,0%,0%);stroke-opacity:1;stroke-miterlimit:10;" d="M 113.816406 151.574219 L 99.6875 146.992188 "/>
<path style="fill:none;stroke-width:1.2;stroke-linecap:butt;stroke-linejoin:miter;stroke:rgb(100%,0%,0%);stroke-opacity:1;stroke-miterlimit:10;" d="M 99.6875 146.992188 L 85.5625 142.414062 "/>
<path style=" stroke:none;fill-rule:nonzero;fill:rgb(100%,100%,100%);fill-opacity:1;" d="M 115.011719 173.621094 L 125.011719 173.621094 L 125.011719 187.621094 L 115.011719 187.621094 Z M 115.011719 173.621094 "/>
<g style="fill:rgb(100%,0%,0%);fill-opacity:1;">
  <use xlink:href="#glyph0-3" x="115.011719" y="184.759766"/>
</g>
<path style="fill:none;stroke-width:1.2;stroke-linecap:butt;stroke-linejoin:miter;stroke:rgb(100%,0%,0%);stroke-opacity:1;stroke-miterlimit:10;" d="M 85.5625 142.414062 L 74.53125 152.359375 "/>
<path style="fill:none;stroke-width:1.2;stroke-linecap:butt;stroke-linejoin:miter;stroke:rgb(0%,0%,0%);stroke-opacity:1;stroke-miterlimit:10;" d="M 74.53125 152.359375 L 63.503906 162.304688 "/>
<path style=" stroke:none;fill-rule:nonzero;fill:rgb(100%,100%,100%);fill-opacity:1;" d="M 80.5625 135.414062 L 90.5625 135.414062 L 90.5625 149.414062 L 80.5625 149.414062 Z M 80.5625 135.414062 "/>
<g style="fill:rgb(100%,0%,0%);fill-opacity:1;">
  <use xlink:href="#glyph0-3" x="80.5625" y="146.552734"/>
</g>
<path style="fill:none;stroke-width:1.2;stroke-linecap:butt;stroke-linejoin:miter;stroke:rgb(0%,0%,0%);stroke-opacity:1;stroke-miterlimit:10;" d="M 63.503906 162.304688 L 35.25 153.144531 "/>
<path style="fill:none;stroke-width:1.2;stroke-linecap:butt;stroke-linejoin:miter;stroke:rgb(0%,0%,0%);stroke-opacity:1;stroke-miterlimit:10;" d="M 63.503906 162.304688 L 69.699219 191.351562 "/>
<path style="fill:none;stroke-width:1.2;stroke-linecap:butt;stroke-linejoin:miter;stroke:rgb(0%,0%,0%);stroke-opacity:1;stroke-miterlimit:10;" d="M 170.324219 169.890625 L 148.265625 189.777344 "/>
<path style="fill:none;stroke-width:1.2;stroke-linecap:butt;stroke-linejoin:miter;stroke:rgb(0%,0%,0%);stroke-opacity:1;stroke-miterlimit:10;" d="M 172.796875 177.066406 L 155.148438 192.980469 "/>
<path style="fill:none;stroke-width:1.2;stroke-linecap:butt;stroke-linejoin:miter;stroke:rgb(0%,0%,0%);stroke-opacity:1;stroke-miterlimit:10;" d="M 198.574219 179.046875 L 170.324219 169.890625 "/>
<path style="fill:none;stroke-width:1.2;stroke-linecap:butt;stroke-linejoin:miter;stroke:rgb(0%,0%,0%);stroke-opacity:1;stroke-miterlimit:10;" d="M 148.265625 189.777344 L 154.460938 218.824219 "/>
<path style="fill:none;stroke-width:1.2;stroke-linecap:butt;stroke-linejoin:miter;stroke:rgb(0%,0%,0%);stroke-opacity:1;stroke-miterlimit:10;" d="M 154.460938 218.824219 L 182.714844 227.984375 "/>
<path style="fill:none;stroke-width:1.2;stroke-linecap:butt;stroke-linejoin:miter;stroke:rgb(0%,0%,0%);stroke-opacity:1;stroke-miterlimit:10;" d="M 159.441406 213.09375 L 182.042969 220.421875 "/>
<path style="fill:none;stroke-width:1.2;stroke-linecap:butt;stroke-linejoin:miter;stroke:rgb(0%,0%,0%);stroke-opacity:1;stroke-miterlimit:10;" d="M 182.714844 227.984375 L 204.773438 208.09375 "/>
<path style="fill:none;stroke-width:1.2;stroke-linecap:butt;stroke-linejoin:miter;stroke:rgb(0%,0%,0%);stroke-opacity:1;stroke-miterlimit:10;" d="M 204.773438 208.09375 L 219.542969 209.636719 "/>
<path style="fill:none;stroke-width:1.2;stroke-linecap:butt;stroke-linejoin:miter;stroke:rgb(0%,0%,100%);stroke-opacity:1;stroke-miterlimit:10;" d="M 219.542969 209.636719 L 234.3125 211.179688 "/>
<path style="fill:none;stroke-width:1.2;stroke-linecap:butt;stroke-linejoin:miter;stroke:rgb(0%,0%,0%);stroke-opacity:1;stroke-miterlimit:10;" d="M 208.453125 201.453125 L 220.265625 202.6875 "/>
<path style="fill:none;stroke-width:1.2;stroke-linecap:butt;stroke-linejoin:miter;stroke:rgb(0%,0%,100%);stroke-opacity:1;stroke-miterlimit:10;" d="M 220.265625 202.6875 L 232.082031 203.917969 "/>
<path style="fill:none;stroke-width:1.2;stroke-linecap:butt;stroke-linejoin:miter;stroke:rgb(0%,0%,0%);stroke-opacity:1;stroke-miterlimit:10;" d="M 198.574219 179.046875 L 204.773438 208.09375 "/>
<path style="fill:none;stroke-width:1.2;stroke-linecap:butt;stroke-linejoin:miter;stroke:rgb(0%,0%,100%);stroke-opacity:1;stroke-miterlimit:10;" d="M 234.3125 211.179688 L 240.34375 197.609375 "/>
<path style="fill:none;stroke-width:1.2;stroke-linecap:butt;stroke-linejoin:miter;stroke:rgb(100%,0%,0%);stroke-opacity:1;stroke-miterlimit:10;" d="M 240.34375 197.609375 L 246.375 184.035156 "/>
<path style=" stroke:none;fill-rule:nonzero;fill:rgb(100%,100%,100%);fill-opacity:1;" d="M 230.3125 204.179688 L 239.3125 204.179688 L 239.3125 218.179688 L 230.3125 218.179688 Z M 230.3125 204.179688 "/>
<g style="fill:rgb(0%,0%,100%);fill-opacity:1;">
  <use xlink:href="#glyph0-1" x="230.3125" y="215.318359"/>
</g>
<path style="fill:none;stroke-width:1.2;stroke-linecap:butt;stroke-linejoin:miter;stroke:rgb(100%,0%,0%);stroke-opacity:1;stroke-miterlimit:10;" d="M 246.375 184.035156 L 235.332031 174.109375 "/>
<path style="fill:none;stroke-width:1.2;stroke-linecap:butt;stroke-linejoin:miter;stroke:rgb(0%,0%,100%);stroke-opacity:1;stroke-miterlimit:10;" d="M 235.332031 174.109375 L 224.289062 164.179688 "/>
<path style=" stroke:none;fill-rule:nonzero;fill:rgb(100%,100%,100%);fill-opacity:1;" d="M 241.375 177.035156 L 251.375 177.035156 L 251.375 191.035156 L 241.375 191.035156 Z M 241.375 177.035156 "/>
<g style="fill:rgb(100%,0%,0%);fill-opacity:1;">
  <use xlink:href="#glyph0-3" x="241.375" y="188.173828"/>
</g>
<path style="fill:none;stroke-width:1.2;stroke-linecap:butt;stroke-linejoin:miter;stroke:rgb(0%,0%,100%);stroke-opacity:1;stroke-miterlimit:10;" d="M 224.289062 164.179688 L 211.433594 171.613281 "/>
<path style="fill:none;stroke-width:1.2;stroke-linecap:butt;stroke-linejoin:miter;stroke:rgb(0%,0%,0%);stroke-opacity:1;stroke-miterlimit:10;" d="M 211.433594 171.613281 L 198.574219 179.046875 "/>
<path style="fill:none;stroke-width:1.2;stroke-linecap:butt;stroke-linejoin:miter;stroke:rgb(0%,0%,100%);stroke-opacity:1;stroke-miterlimit:10;" d="M 225.214844 171.714844 L 214.929688 177.664062 "/>
<path style="fill:none;stroke-width:1.2;stroke-linecap:butt;stroke-linejoin:miter;stroke:rgb(0%,0%,0%);stroke-opacity:1;stroke-miterlimit:10;" d="M 214.929688 177.664062 L 204.644531 183.609375 "/>
<path style=" stroke:none;fill-rule:nonzero;fill:rgb(100%,100%,100%);fill-opacity:1;" d="M 220.289062 157.179688 L 229.289062 157.179688 L 229.289062 171.179688 L 220.289062 171.179688 Z M 220.289062 157.179688 "/>
<g style="fill:rgb(0%,0%,100%);fill-opacity:1;">
  <use xlink:href="#glyph0-1" x="220.289062" y="168.318359"/>
</g>
<path style="fill:none;stroke-width:1.2;stroke-linecap:butt;stroke-linejoin:miter;stroke:rgb(0%,0%,0%);stroke-opacity:1;stroke-miterlimit:10;" d="M 211.300781 131.644531 L 215.148438 139.523438 "/>
<path style="fill:none;stroke-width:1.2;stroke-linecap:butt;stroke-linejoin:miter;stroke:rgb(100%,0%,0%);stroke-opacity:1;stroke-miterlimit:10;" d="M 215.148438 139.523438 L 219 147.402344 "/>
<path style="fill:none;stroke-width:1.2;stroke-linecap:butt;stroke-linejoin:miter;stroke:rgb(0%,0%,0%);stroke-opacity:1;stroke-miterlimit:10;" d="M 217.578125 128.578125 L 221.429688 136.457031 "/>
<path style="fill:none;stroke-width:1.2;stroke-linecap:butt;stroke-linejoin:miter;stroke:rgb(100%,0%,0%);stroke-opacity:1;stroke-miterlimit:10;" d="M 221.429688 136.457031 L 225.277344 144.332031 "/>
<path style="fill:none;stroke-width:1.2;stroke-linecap:butt;stroke-linejoin:miter;stroke:rgb(0%,0%,0%);stroke-opacity:1;stroke-miterlimit:10;" d="M 214.4375 130.109375 L 225.46875 120.167969 "/>
<path style="fill:none;stroke-width:1.2;stroke-linecap:butt;stroke-linejoin:miter;stroke:rgb(100%,0%,0%);stroke-opacity:1;stroke-miterlimit:10;" d="M 225.46875 120.167969 L 236.496094 110.222656 "/>
<path style=" stroke:none;fill-rule:nonzero;fill:rgb(100%,100%,100%);fill-opacity:1;" d="M 217.136719 138.867188 L 227.136719 138.867188 L 227.136719 152.867188 L 217.136719 152.867188 Z M 217.136719 138.867188 "/>
<g style="fill:rgb(100%,0%,0%);fill-opacity:1;">
  <use xlink:href="#glyph0-3" x="217.136719" y="150.005859"/>
</g>
<path style="fill:none;stroke-width:1.2;stroke-linecap:butt;stroke-linejoin:miter;stroke:rgb(100%,0%,0%);stroke-opacity:1;stroke-miterlimit:10;" d="M 236.496094 110.222656 L 250.625 114.800781 "/>
<path style="fill:none;stroke-width:1.2;stroke-linecap:butt;stroke-linejoin:miter;stroke:rgb(0%,0%,0%);stroke-opacity:1;stroke-miterlimit:10;" d="M 250.625 114.800781 L 264.75 119.378906 "/>
<path style=" stroke:none;fill-rule:nonzero;fill:rgb(100%,100%,100%);fill-opacity:1;" d="M 231.496094 103.222656 L 241.496094 103.222656 L 241.496094 117.222656 L 231.496094 117.222656 Z M 231.496094 103.222656 "/>
<g style="fill:rgb(100%,0%,0%);fill-opacity:1;">
  <use xlink:href="#glyph0-3" x="231.496094" y="114.361328"/>
</g>
</g>
</svg>

<svg xmlns="http://www.w3.org/2000/svg" xmlns:xlink="http://www.w3.org/1999/xlink" width="300pt" height="300pt" viewBox="0 0 300 300"><defs><symbol overflow="visible"><path d="M.594 2.125V-8.47h6V2.126zm.672-.672h4.671V-7.78h-4.67zm0 0"/></symbol><symbol overflow="visible" id="a"><path d="M1.172-8.75h1.594l3.89 7.313V-8.75h1.14V0H6.204L2.328-7.313V0H1.172zm0 0"/></symbol><symbol overflow="visible" id="b"><path d="M1.172-8.75H2.36v3.594h4.296V-8.75h1.188V0H6.656v-4.172H2.36V0H1.17zm0 0"/></symbol><symbol overflow="visible" id="c"><path d="M4.734-7.953c-.867 0-1.554.324-2.062.97-.5.635-.75 1.51-.75 2.624 0 1.094.25 1.965.75 2.61.508.637 1.195.953 2.062.953.852 0 1.532-.316 2.032-.953.507-.645.765-1.516.765-2.61 0-1.113-.257-1.988-.764-2.624-.5-.645-1.18-.97-2.032-.97zm0-.953c1.22 0 2.192.414 2.922 1.234.74.824 1.11 1.93 1.11 3.313 0 1.376-.37 2.477-1.11 3.298C6.926-.24 5.953.17 4.734.17c-1.23 0-2.214-.41-2.953-1.234C1.04-1.882.673-2.984.673-4.36c0-1.382.367-2.488 1.11-3.312.738-.82 1.722-1.234 2.952-1.234zm0 0"/></symbol></defs><g><path fill="#fff" d="M0 0h300v300H0z"/><path d="M202.047 72.016l-22.06 19.89M179.988 91.906l6.196 29.047M173.773 96.27l4.957 23.234" stroke-width="1.2" stroke="#000" stroke-miterlimit="10" fill="none"/><path d="M151.734 82.746l14.13 4.578" stroke-width="1.2" stroke="#00f" stroke-miterlimit="10" fill="none"/><path d="M165.863 87.324l14.125 4.582M186.184 120.953l-22.06 19.89M186.184 120.953l28.254 9.156M164.125 140.844l-28.25-9.16" stroke-width="1.2" stroke="#000" stroke-miterlimit="10" fill="none"/><path d="M164.125 140.844m.11 2.996l1.02-.22m-.915 3.22l2.04-.438m-1.935 3.434l3.06-.652m-2.954 3.652l4.083-.87m-3.973 3.866l5.098-1.086m-4.992 4.086l6.117-1.305m-6.012 4.3l7.142-1.522m-7.035 4.523l8.16-1.742m-8.05 4.738l9.175-1.957m-9.07 4.957l10.195-2.176m-10.192 2.336l10.254-2.187" stroke="#000" stroke-miterlimit="10" fill="none"/><path d="M135.875 131.684l-6.2-29.047M142.09 127.32l-4.957-23.238M135.875 131.684l-22.06 19.89M129.676 102.637l11.03-9.946" stroke-width="1.2" stroke="#000" stroke-miterlimit="10" fill="none"/><path d="M140.707 92.69l11.027-9.944" stroke-width="1.2" stroke="#00f" stroke-miterlimit="10" fill="none"/><path d="M129.676 102.637l-28.25-9.16" stroke-width="1.2" stroke="#000" stroke-miterlimit="10" fill="none"/><path d="M142.734 75.746h18v14h-18zm0 0" fill="#fff"/><g fill="#00f"><use xlink:href="#a" x="142.734" y="86.885"/><use xlink:href="#b" x="151.711" y="86.885"/></g><path d="M110.398 152.3l3.098 14.524" stroke-width="1.2" stroke="#000" stroke-miterlimit="10" fill="none"/><path d="M113.496 166.824l3.098 14.524" stroke-width="1.2" stroke="#f00" stroke-miterlimit="10" fill="none"/><path d="M117.234 150.844l3.098 14.523" stroke-width="1.2" stroke="#000" stroke-miterlimit="10" fill="none"/><path d="M120.332 165.367l3.098 14.524" stroke-width="1.2" stroke="#f00" stroke-miterlimit="10" fill="none"/><path d="M113.816 151.574l-14.13-4.582" stroke-width="1.2" stroke="#000" stroke-miterlimit="10" fill="none"/><path d="M99.688 146.992l-14.126-4.578" stroke-width="1.2" stroke="#f00" stroke-miterlimit="10" fill="none"/><path d="M115.012 173.62h10v14h-10zm0 0" fill="#fff"/><use xlink:href="#c" x="115.012" y="184.76" fill="#f00"/><path d="M85.563 142.414L74.53 152.36" stroke-width="1.2" stroke="#f00" stroke-miterlimit="10" fill="none"/><path d="M74.53 152.36l-11.026 9.945" stroke-width="1.2" stroke="#000" stroke-miterlimit="10" fill="none"/><path d="M80.563 135.414h10v14h-10zm0 0" fill="#fff"/><use xlink:href="#c" x="80.563" y="146.553" fill="#f00"/><path d="M63.504 162.305l-28.254-9.16M63.504 162.305l6.195 29.047M170.324 169.89l-22.058 19.887M172.797 177.066l-17.65 15.914M198.574 179.047l-28.25-9.156M148.266 189.777l6.195 29.047M154.46 218.824l28.255 9.16M159.44 213.094l22.603 7.328M182.715 227.984l22.058-19.89M204.773 208.094l14.77 1.543" stroke-width="1.2" stroke="#000" stroke-miterlimit="10" fill="none"/><path d="M219.543 209.637l14.77 1.543" stroke-width="1.2" stroke="#00f" stroke-miterlimit="10" fill="none"/><path d="M208.453 201.453l11.813 1.234" stroke-width="1.2" stroke="#000" stroke-miterlimit="10" fill="none"/><path d="M220.266 202.688l11.816 1.23" stroke-width="1.2" stroke="#00f" stroke-miterlimit="10" fill="none"/><path d="M198.574 179.047l6.2 29.047" stroke-width="1.2" stroke="#000" stroke-miterlimit="10" fill="none"/><path d="M234.313 211.18l6.03-13.57" stroke-width="1.2" stroke="#00f" stroke-miterlimit="10" fill="none"/><path d="M240.344 197.61l6.03-13.575" stroke-width="1.2" stroke="#f00" stroke-miterlimit="10" fill="none"/><path d="M230.313 204.18h9v14h-9zm0 0" fill="#fff"/><use xlink:href="#a" x="230.313" y="215.318" fill="#00f"/><path d="M246.375 184.035l-11.043-9.926" stroke-width="1.2" stroke="#f00" stroke-miterlimit="10" fill="none"/><path d="M235.332 174.11l-11.043-9.93" stroke-width="1.2" stroke="#00f" stroke-miterlimit="10" fill="none"/><path d="M241.375 177.035h10v14h-10zm0 0" fill="#fff"/><use xlink:href="#c" x="241.375" y="188.174" fill="#f00"/><path d="M224.29 164.18l-12.856 7.433" stroke-width="1.2" stroke="#00f" stroke-miterlimit="10" fill="none"/><path d="M211.434 171.613l-12.86 7.434" stroke-width="1.2" stroke="#000" stroke-miterlimit="10" fill="none"/><path d="M225.215 171.715l-10.285 5.95" stroke-width="1.2" stroke="#00f" stroke-miterlimit="10" fill="none"/><path d="M214.93 177.664l-10.285 5.945" stroke-width="1.2" stroke="#000" stroke-miterlimit="10" fill="none"/><path d="M220.29 157.18h9v14h-9zm0 0" fill="#fff"/><use xlink:href="#a" x="220.289" y="168.318" fill="#00f"/><path d="M211.3 131.645l3.848 7.878" stroke-width="1.2" stroke="#000" stroke-miterlimit="10" fill="none"/><path d="M215.148 139.523l3.852 7.88" stroke-width="1.2" stroke="#f00" stroke-miterlimit="10" fill="none"/><path d="M217.578 128.578l3.852 7.88" stroke-width="1.2" stroke="#000" stroke-miterlimit="10" fill="none"/><path d="M221.43 136.457l3.847 7.875" stroke-width="1.2" stroke="#f00" stroke-miterlimit="10" fill="none"/><path d="M214.438 130.11l11.03-9.942" stroke-width="1.2" stroke="#000" stroke-miterlimit="10" fill="none"/><path d="M225.47 120.168l11.026-9.945" stroke-width="1.2" stroke="#f00" stroke-miterlimit="10" fill="none"/><path d="M217.137 138.867h10v14h-10zm0 0" fill="#fff"/><use xlink:href="#c" x="217.137" y="150.006" fill="#f00"/><path d="M236.496 110.223l14.13 4.578" stroke-width="1.2" stroke="#f00" stroke-miterlimit="10" fill="none"/><path d="M250.625 114.8l14.125 4.58" stroke-width="1.2" stroke="#000" stroke-miterlimit="10" fill="none"/><path d="M231.496 103.223h10v14h-10zm0 0" fill="#fff"/><use xlink:href="#c" x="231.496" y="114.361" fill="#f00"/></g></svg>
